X:964
T:Bonnie Strathardle
C:Joe Buchanan's Scottish Tome - Page 561.2
I:561 2
Z:Carl Allison
R:Waltz
L:1/4
M:3/4
K:A
D E D | C D E | E c B | A3 | F2 G | A B A | A G F | E3 |
E E D | C D E | E A c | e3 | c2 A | d>c B | A F A | B3 |
B E D | C>D E | D e d | c3 | A B c | d>c B | A B c | B3 |
B c d | e c A | d A B | A3 | F2 A | E F A | B A B | A3 |]

